public/process-dash.svg

<svg width="754" height="255" viewBox="0 0 754 255" fill="none" xmlns="http://www.w3.org/2000/svg">
<path class="path" d="M65.2024 165.431C7.20322 180.941 -20.8399 99.6465 27.5354 83.0317C86.9664 62.6223 122.937 135.778 67.8365 167.018C14.7323 187.006 -18.316 123.748 19.2644 89.114C58.9232 52.5599 120.121 114.659 80.0002 152.06C41.7605 187.702 -22.8939 138.226 10.809 100.172C18.6922 91.2724 30.8559 84.6921 42.7265 83.4987C79.0205 79.8528 90.9552 113.874 115.122 132.842C139.308 151.823 172.635 158.664 202.126 149.981C214.221 146.422 226.005 139.005 233.284 128.621C247.448 108.413 231.53 86.0806 210.06 80.7835C172.049 71.4014 131.072 102.401 138.987 143.102C154.346 222.034 281.398 189.09 261.484 104.375C244.834 33.5517 118.638 54.2299 135.27 127.737C142.654 160.385 177.501 185.658 210.696 184.715C241.909 183.828 273.803 155.955 265.92 122.585C261.845 105.367 250.002 91.5046 235.911 81.2907C195.213 51.7963 147.493 61.3019 129.923 111.103C124.164 127.434 125.583 144.912 132.463 160.708C159.217 222.12 260.161 174.827 254.741 111.279C249.499 49.9069 164.82 27.7323 137.307 87.302C130.756 101.49 129.327 118.265 133.672 133.291C137.183 145.438 144.114 156.661 153.238 165.431C225.561 234.965 277.278 136.938 321.867 94.2875C334.036 82.6449 348.698 72.9447 364.307 66.5465C403.821 50.352 470.824 62.8081 482.823 110.03C504.935 197.047 339.042 251.886 327.176 147.29C323.482 114.734 334.472 77.4375 363.194 59.1747C393.846 39.6808 452.317 47.0032 466.079 85.453C470.332 97.3333 468.703 110.37 466.385 122.486C458.217 165.191 425.164 209.624 377.692 207.451C359.066 206.598 344.883 196.81 334.846 181.538C327.47 170.313 320.178 157.103 318.521 143.568C316.927 130.591 319.093 117.282 324.187 105.287C348.868 47.1918 420.282 51.144 457.657 93.5207C473.474 111.453 489.544 143.531 476.781 167.018C441.522 231.904 291.021 152.344 334.927 85.8179C343.952 72.1403 357.6 62.8356 373.296 58.3181C386.111 54.6287 399.932 55.1575 412.896 57.7523C430.597 61.2988 455.003 66.7722 464.842 83.8851C468.734 90.654 468.604 98.2456 466.877 105.677C457.719 145.135 396.389 164.993 361.904 169.912C343.383 172.554 317.66 172.973 316.076 148.523C312.729 97.0242 386.575 65.7953 428.36 64.2241C448.137 63.4821 476.635 67.7803 483.66 89.5283C497.36 131.945 436.352 215.698 390.61 212.251C362.055 210.1 339.914 177.82 331.229 152.937C314.584 105.253 333.302 56.3977 388.818 54.1682C402.318 53.6271 416.578 55.4729 428.799 61.4847C459.736 76.6986 476.98 117.807 475.887 151.211C475.32 168.563 467.171 185.272 454.359 196.828C404.601 241.701 319.432 201.958 330.939 134.664C339.06 87.1564 399.688 59.0634 437.101 93.7588C444.684 100.791 451.033 110.55 451.831 121.113C455.77 173.128 368.197 223.963 342.968 169.22C330.317 141.771 349.267 114.582 377.795 109.885C392.401 107.479 407.166 109.848 421.767 111.041C434.041 112.044 458.041 109.962 451.308 91.0253C447.645 80.7185 437.883 73.0775 427.902 69.3574C371.841 48.4723 347.581 144.746 403.639 157.729C412.986 159.894 422.955 158.817 431.327 154.056C440.485 148.849 447.608 139.34 449.362 128.893C458.462 74.7227 364.623 50.4357 347.455 103.914C329.33 160.368 410.155 202.096 450.389 163.63C458.273 156.093 464.325 146.425 466.209 135.584C477.695 69.4873 382.918 33.1806 347.414 89.9893C330.221 117.507 334.747 159.559 359.512 180.904C368.828 188.935 381.04 194.816 393.385 195.98C397.265 196.345 401.182 196.387 405.071 196.189C406.841 196.098 408.611 195.904 410.371 195.705C411.25 195.605 413.865 195.166 413.007 195.383C371.111 205.986 336.325 181.216 334.852 137.891C334.45 126.076 335.719 114.672 341.7 104.285C348.618 92.2649 360.873 83.1984 373.379 77.719C422.469 56.2026 463.251 92.9205 473.228 139.582C476.629 155.486 476.879 172.188 468.041 186.534C426.575 253.833 297.732 164.829 331.14 95.3359C352.612 50.6738 410.412 50.8469 446.884 75.1307C496.027 107.853 519.544 167.666 569.95 197.92C624.375 230.586 691.945 223.479 714.51 157.466C751.297 49.8452 597.217 -6.56752 547.88 82.1967C522.713 127.474 551.053 197.256 593.293 222.188C628.487 242.961 681.328 229.616 699.35 192.018C735.021 117.6 665.742 -34.7787 577.983 49.3101C568.076 58.8034 558.918 69.7625 552.289 81.8131C542.223 100.113 536.614 121.166 534.127 141.839C524.31 223.45 602.221 229.545 663.895 216.409C694.422 209.907 724.354 201.576 733.653 168.151C738.385 151.14 735.964 132.242 730.122 115.828C710.945 61.942 653.965 29.0989 597.5 33.4992C560.312 36.3998 520.1 78.5599 525.992 117.065C534.817 174.751 617.702 248.382 677.527 222.12C721.935 202.624 764.72 114.189 729.832 70.7089C709.131 44.913 670.253 48.3052 642.577 58.5992C591.406 77.6325 534.026 129.243 547.851 189.809C550.639 202.022 555.027 213.599 563.475 223.069C586.162 248.498 624.517 243.192 651.813 228.824C671.865 218.267 688.631 203.74 700.087 183.972C719.921 149.748 729.738 60.186 688.93 36.072C649.791 12.9447 578.668 46.632 562.487 86.7486C536.944 150.073 590.245 229.771 655.844 238.678C698.224 244.432 720.226 204.52 723.227 166.963C728.16 105.222 702.478 53.7416 641.421 34.9651C623.064 29.3186 602.502 27.791 584.675 35.9667C572.722 41.4497 561.938 50.7233 554.149 61.2462C473.423 170.326 668.439 231.987 719.52 177.082C729.63 166.215 734.547 151.403 735.093 136.77C738.388 48.54 602.887 -11.7072 562.01 84.2779C518.528 186.375 675.39 260.467 721.079 158.367C726.69 145.831 729.74 132.038 730.206 118.318C733.497 21.5168 577.758 19.1106 552.805 118.831C548.603 135.622 547.726 153.577 555.679 169.47C564.343 186.781 580.815 199.097 599.175 204.585C680.323 228.839 763.881 118.664 688.842 64.4036C676.993 55.8351 662.872 49.7835 648.624 46.6169C597.394 35.2187 548.919 80.6163 543.175 130.365C540.521 153.357 546.478 175.874 555.613 196.868C566.321 221.475 583.257 251.659 613.513 253.138C694.867 257.114 732.087 106.044 707.899 45.049C693.99 9.97633 643.451 -12.5513 611.039 12.5954C593.845 25.9323 582.943 48.6884 578.246 69.5181C563.154 136.461 590.618 191.56 654.717 218.552C690.308 233.538 751.171 244.426 751.989 187.006C752.938 120.303 693.627 63.2934 634.266 43.8678C596.087 31.3778 554.044 32.222 532.19 70.8636C509.754 110.532 530.567 163.916 567.455 186.853C586.725 198.835 609.793 203.458 632.295 202.921C663.401 202.18 703.583 186.763 707.771 151.273C714.51 94.1543 633.811 54.0199 585.736 66.7878C550.925 76.0339 533.184 114.134 525.475 146.067C521.373 163.065 517.796 183.827 525.76 200.319C538.824 227.376 575.008 224.678 599.022 216.995C646.395 201.841 723.903 138.06 688.288 81.6739C663.476 42.3896 594.307 29.9124 567.559 73.826C562.249 82.5428 559.581 94.2687 561.799 104.375C568.266 133.832 602.107 144.261 628.62 144.95C659.574 145.754 687.021 131.658 716.52 124.774C737.359 119.91 734.029 160.49 667.306 205.135" stroke="#222B25" stroke-width="2.28898" stroke-miterlimit="1.5" stroke-linecap="round" stroke-linejoin="round" stroke-dasharray="5.49 5.49"/>
</svg>

<svg xmlns="http://www.w3.org/2000/svg" width="754" height="255" fill="none"><path stroke="#222B25" stroke-dasharray="5.49 5.49" stroke-linecap="round" stroke-linejoin="round" stroke-miterlimit="1.5" stroke-width="2.289" d="M65.202 165.431c-57.999 15.51-86.042-65.785-37.667-82.4 59.431-20.409 95.402 52.747 40.302 83.987-53.105 19.988-86.153-43.27-48.573-77.904C58.924 52.56 120.121 114.659 80 152.06c-38.24 35.642-102.894-13.834-69.191-51.888 7.883-8.9 20.047-15.48 31.918-16.673 36.294-3.646 48.228 30.375 72.395 49.343 24.186 18.981 57.513 25.822 87.004 17.139 12.095-3.559 23.879-10.976 31.158-21.36 14.164-20.208-1.754-42.54-23.224-47.838-38.011-9.382-78.988 21.618-71.073 62.319 15.359 78.932 142.411 45.988 122.497-38.727-16.65-70.823-142.846-50.145-126.214 23.362 7.384 32.648 42.231 57.921 75.426 56.978 31.213-.887 63.107-28.76 55.224-62.13-4.075-17.218-15.918-31.08-30.009-41.294-40.698-29.495-88.418-19.99-105.988 29.812-5.759 16.331-4.34 33.809 2.54 49.605 26.754 61.412 127.698 14.119 122.278-49.429-5.242-61.372-89.921-83.547-117.434-23.977-6.551 14.188-7.98 30.963-3.635 45.989 3.511 12.147 10.442 23.37 19.566 32.14 72.323 69.534 124.04-28.493 168.629-71.144 12.169-11.642 26.831-21.342 42.44-27.74 39.514-16.195 106.517-3.739 118.516 43.483 22.112 87.017-143.781 141.856-155.647 37.26-3.694-32.556 7.296-69.852 36.018-88.115 30.652-19.494 89.123-12.172 102.885 26.278 4.253 11.88 2.624 24.917.306 37.033-8.168 42.705-41.221 87.138-88.693 84.965-18.626-.853-32.809-10.641-42.846-25.913-7.376-11.225-14.668-24.435-16.325-37.97-1.594-12.977.572-26.286 5.666-38.281 24.681-58.095 96.095-54.143 133.47-11.766 15.817 17.932 31.887 50.01 19.124 73.497-35.259 64.886-185.76-14.674-141.854-81.2 9.025-13.678 22.673-22.982 38.369-27.5 12.815-3.69 26.636-3.16 39.6-.566 17.701 3.547 42.107 9.02 51.946 26.133 3.892 6.769 3.762 14.36 2.035 21.792-9.158 39.458-70.488 59.316-104.973 64.235-18.521 2.642-44.244 3.061-45.828-21.389-3.347-51.499 70.499-82.728 112.284-84.299 19.777-.742 48.275 3.556 55.3 25.304 13.7 42.417-47.308 126.17-93.05 122.723-28.555-2.151-50.696-34.431-59.381-59.314-16.645-47.684 2.073-96.54 57.589-98.769 13.5-.54 27.76 1.305 39.981 7.317 30.937 15.214 48.181 56.322 47.088 89.726-.567 17.352-8.716 34.061-21.528 45.617-49.758 44.873-134.927 5.13-123.42-62.164 8.121-47.508 68.749-75.6 106.162-40.905 7.583 7.032 13.932 16.791 14.73 27.354 3.939 52.015-83.634 102.85-108.863 48.107-12.651-27.449 6.299-54.638 34.827-59.335 14.606-2.406 29.371-.037 43.972 1.156 12.274 1.003 36.274-1.079 29.541-20.016-3.663-10.306-13.425-17.948-23.406-21.668-56.061-20.885-80.321 75.389-24.263 88.372 9.347 2.165 19.316 1.088 27.688-3.673 9.158-5.207 16.281-14.716 18.035-25.163 9.1-54.17-84.739-78.457-101.907-24.979-18.125 56.454 62.7 98.182 102.934 59.716 7.884-7.537 13.936-17.205 15.82-28.046 11.486-66.097-83.291-102.403-118.795-45.595-17.193 27.518-12.667 69.57 12.098 90.915 9.316 8.031 21.528 13.912 33.873 15.076 3.88.365 7.797.407 11.686.209 1.77-.091 3.54-.285 5.3-.484.879-.1 3.494-.539 2.636-.322-41.896 10.603-76.682-14.167-78.155-57.492-.402-11.815.867-23.219 6.848-33.606 6.918-12.02 19.173-21.087 31.679-26.566 49.09-21.516 89.872 15.202 99.849 61.863 3.401 15.904 3.651 32.606-5.187 46.952-41.466 67.299-170.309-21.705-136.901-91.198 21.472-44.662 79.272-44.49 115.744-20.205 49.143 32.722 72.66 92.535 123.066 122.789 54.425 32.666 121.995 25.559 144.56-40.454 36.787-107.62-117.293-164.034-166.63-75.27-25.167 45.278 3.173 115.06 45.413 139.992 35.194 20.773 88.035 7.428 106.057-30.17C735.021 117.6 665.742-34.779 577.983 49.31c-9.907 9.493-19.065 20.453-25.694 32.503-10.066 18.3-15.675 39.353-18.162 60.026-9.817 81.611 68.094 87.706 129.768 74.57 30.527-6.502 60.459-14.833 69.758-48.258 4.732-17.011 2.311-35.909-3.531-52.323-19.177-53.886-76.157-86.73-132.622-82.329-37.188 2.9-77.4 45.06-71.508 83.566 8.825 57.686 91.71 131.317 151.535 105.055 44.408-19.496 87.193-107.931 52.305-151.411-20.701-25.796-59.579-22.404-87.255-12.11-51.171 19.033-108.551 70.644-94.726 131.21 2.788 12.213 7.176 23.79 15.624 33.26 22.687 25.429 61.042 20.123 88.338 5.755 20.052-10.557 36.818-25.084 48.274-44.852 19.834-34.224 29.651-123.786-11.157-147.9-39.139-23.127-110.262 10.56-126.443 50.677-25.543 63.324 27.758 143.022 93.357 151.929 42.38 5.754 64.382-34.158 67.383-71.715 4.933-61.741-20.749-113.221-81.806-131.998-18.357-5.646-38.919-7.174-56.746 1.002-11.953 5.483-22.737 14.756-30.526 25.28-80.726 109.079 114.29 170.74 165.371 115.835 10.11-10.867 15.027-25.679 15.573-40.312 3.295-88.23-132.206-148.477-173.083-52.492-43.482 102.097 113.38 176.189 159.069 74.089 5.611-12.536 8.661-26.329 9.127-40.049 3.291-96.801-152.448-99.207-177.401.513-4.202 16.791-5.079 34.746 2.874 50.639 8.664 17.311 25.136 29.627 43.496 35.115 81.148 24.254 164.706-85.921 89.667-140.181-11.849-8.569-25.97-14.62-40.218-17.787-51.23-11.398-99.705 34-105.449 83.748-2.654 22.992 3.303 45.509 12.438 66.503 10.708 24.607 27.644 54.791 57.9 56.27 81.354 3.976 118.574-147.094 94.386-208.089-13.909-35.073-64.448-57.6-96.86-32.454-17.194 13.337-28.096 36.093-32.793 56.923-15.092 66.943 12.372 122.042 76.471 149.034 35.591 14.986 96.454 25.874 97.272-31.546.949-66.703-58.362-123.713-117.723-143.138-38.179-12.49-80.222-11.646-102.076 26.996-22.436 39.668-1.623 93.052 35.265 115.989 19.27 11.982 42.338 16.605 64.84 16.068 31.106-.741 71.288-16.158 75.476-51.648 6.739-57.119-73.96-97.253-122.035-84.485-34.811 9.246-52.552 47.346-60.261 79.279-4.102 16.998-7.679 37.76.285 54.252 13.064 27.057 49.248 24.359 73.262 16.676 47.373-15.154 124.881-78.935 89.266-135.321-24.812-39.284-93.981-51.762-120.729-7.848-5.31 8.717-7.978 20.443-5.76 30.549 6.467 29.457 40.308 39.886 66.821 40.575 30.954.804 58.401-13.292 87.9-20.176 20.839-4.864 17.509 35.716-49.214 80.361" class="path"/></svg>
